assets/images/python.svg

<svg width="24" height="24" viewBox="0 0 24 24" fill="none" xmlns="http://www.w3.org/2000/svg">
<path d="M20.568 6C21.4782 6 22.3512 6.36158 22.9948 7.00521C23.6384 7.64883 24 8.52178 24 9.432V13.968C24 14.8782 23.6384 15.7512 22.9948 16.3948C22.3512 17.0384 21.4782 17.4 20.568 17.4H12C12 17.868 12.384 18.552 12.852 18.552H18V20.568C18 21.4782 17.6384 22.3512 16.9948 22.9948C16.3512 23.6384 15.4782 24 14.568 24H9.432C8.52178 24 7.64883 23.6384 7.00521 22.9948C6.36159 22.3512 6 21.4782 6 20.568V16.068C6 14.172 7.536 12.648 9.432 12.648H15.732C17.628 12.648 19.152 11.112 19.152 9.216V6H20.568ZM15.432 20.148C14.952 20.148 14.568 20.508 14.568 21.216C14.568 21.924 14.952 22.068 15.432 22.068C15.5439 22.068 15.6547 22.046 15.758 22.0031C15.8614 21.9603 15.9553 21.8976 16.0345 21.8185C16.1136 21.7393 16.1763 21.6454 16.2191 21.542C16.262 21.4387 16.284 21.3279 16.284 21.216C16.284 20.508 15.9 20.148 15.432 20.148ZM3.432 18C1.536 18 0 16.464 0 14.568V10.032C0 8.136 1.536 6.6 3.432 6.6H12C12 6.132 11.616 5.448 11.148 5.448H6V3.432C6 1.536 7.536 0 9.432 0H14.568C16.464 0 18 1.536 18 3.432V7.932C18 9.828 16.464 11.352 14.568 11.352H8.268C6.372 11.352 4.848 12.888 4.848 14.784V18H3.432ZM8.568 3.852C9.048 3.852 9.432 3.492 9.432 2.784C9.432 2.076 9.048 1.932 8.568 1.932C8.1 1.932 7.716 2.076 7.716 2.784C7.716 3.492 8.1 3.852 8.568 3.852Z" fill="#626262"/>
</svg>

<svg width="24" height="24" viewBox="0 0 24 24" fill="none" xmlns="http://www.w3.org/2000/svg"><path d="M20.568 6A3.432 3.432 0 0 1 24 9.432v4.536a3.432 3.432 0 0 1-3.432 3.432H12c0 .468.384 1.152.852 1.152H18v2.016A3.432 3.432 0 0 1 14.568 24H9.432A3.432 3.432 0 0 1 6 20.568v-4.5a3.421 3.421 0 0 1 3.432-3.42h6.3a3.421 3.421 0 0 0 3.42-3.432V6h1.416Zm-5.136 14.148c-.48 0-.864.36-.864 1.068 0 .708.384.852.864.852a.85.85 0 0 0 .852-.852c0-.708-.384-1.068-.852-1.068ZM3.432 18A3.431 3.431 0 0 1 0 14.568v-4.536A3.431 3.431 0 0 1 3.432 6.6H12c0-.468-.384-1.152-.852-1.152H6V3.432A3.431 3.431 0 0 1 9.432 0h5.136A3.431 3.431 0 0 1 18 3.432v4.5a3.421 3.421 0 0 1-3.432 3.42h-6.3a3.421 3.421 0 0 0-3.42 3.432V18H3.432ZM8.568 3.852c.48 0 .864-.36.864-1.068 0-.708-.384-.852-.864-.852-.468 0-.852.144-.852.852s.384 1.068.852 1.068Z" fill="#626262"/></svg>
